X: 1
T: Peter Francisco
R: reel
Z: 2014 John Chambers <jc:trillian.mit.edu>
S: handwritten MS by John Chambers (1970s)
M: 2/4
L: 1/16
K: D
FE |:\
"D"D2D2 DFAB | "C"=c2cA GE=C2 | "D"D2DE DFAc | "A7"dfec "D"d2A2 |\
"D"D2D2 DFAB | "C"=c2cA GE=C2 | "D"D2DE DFAc | "A7"dfec "D"d2A2 :|
|:\
"D"d2e2 f2g2 | "A7"a2a2 gfe2 | "D"dcde fefg | "A7"agab a2A2 |\
"D"dcde fefg | "A7"a2a2 gfe2 | "D"df"A7"ec "D"d2AF | "A7"GBAF "D"D4 :|
